images/3232847.svg

<?xml version="1.0" encoding="UTF-8"?>
<svg xmlns="http://www.w3.org/2000/svg" xmlns:xlink="http://www.w3.org/1999/xlink" width="300pt" height="300pt" viewBox="0 0 300 300" version="1.1">
<defs>
<g>
<symbol overflow="visible" id="glyph0-0">
<path style="stroke:none;" d="M 0.453125 1.59375 L 0.453125 -6.34375 L 4.953125 -6.34375 L 4.953125 1.59375 Z M 0.953125 1.09375 L 4.453125 1.09375 L 4.453125 -5.84375 L 0.953125 -5.84375 Z M 0.953125 1.09375 "/>
</symbol>
<symbol overflow="visible" id="glyph0-1">
<path style="stroke:none;" d="M 3.546875 -5.953125 C 2.898438 -5.953125 2.382812 -5.710938 2 -5.234375 C 1.625 -4.753906 1.4375 -4.101562 1.4375 -3.28125 C 1.4375 -2.445312 1.625 -1.789062 2 -1.3125 C 2.382812 -0.832031 2.898438 -0.59375 3.546875 -0.59375 C 4.191406 -0.59375 4.703125 -0.832031 5.078125 -1.3125 C 5.453125 -1.789062 5.640625 -2.445312 5.640625 -3.28125 C 5.640625 -4.101562 5.453125 -4.753906 5.078125 -5.234375 C 4.703125 -5.710938 4.191406 -5.953125 3.546875 -5.953125 Z M 3.546875 -6.6875 C 4.460938 -6.6875 5.195312 -6.375 5.75 -5.75 C 6.300781 -5.132812 6.578125 -4.3125 6.578125 -3.28125 C 6.578125 -2.238281 6.300781 -1.410156 5.75 -0.796875 C 5.195312 -0.179688 4.460938 0.125 3.546875 0.125 C 2.617188 0.125 1.878906 -0.179688 1.328125 -0.796875 C 0.773438 -1.410156 0.5 -2.238281 0.5 -3.28125 C 0.5 -4.3125 0.773438 -5.132812 1.328125 -5.75 C 1.878906 -6.375 2.617188 -6.6875 3.546875 -6.6875 Z M 3.546875 -6.6875 "/>
</symbol>
<symbol overflow="visible" id="glyph0-2">
<path style="stroke:none;" d="M 0.890625 -6.5625 L 2.078125 -6.5625 L 4.984375 -1.078125 L 4.984375 -6.5625 L 5.84375 -6.5625 L 5.84375 0 L 4.65625 0 L 1.75 -5.484375 L 1.75 0 L 0.890625 0 Z M 0.890625 -6.5625 "/>
</symbol>
<symbol overflow="visible" id="glyph0-3">
<path style="stroke:none;" d="M 0.890625 -6.5625 L 1.765625 -6.5625 L 1.765625 -3.875 L 5 -3.875 L 5 -6.5625 L 5.890625 -6.5625 L 5.890625 0 L 5 0 L 5 -3.125 L 1.765625 -3.125 L 1.765625 0 L 0.890625 0 Z M 0.890625 -6.5625 "/>
</symbol>
</g>
</defs>
<g id="surface52933">
<rect x="0" y="0" width="300" height="300" style="fill:rgb(100%,100%,100%);fill-opacity:1;stroke:none;"/>
<path style="fill:none;stroke-width:1.2;stroke-linecap:butt;stroke-linejoin:miter;stroke:rgb(0%,0%,0%);stroke-opacity:1;stroke-miterlimit:10;" d="M 58.589844 84.257812 L 51.5 91.246094 "/>
<path style="fill:none;stroke-width:1.2;stroke-linecap:butt;stroke-linejoin:miter;stroke:rgb(100%,0%,0%);stroke-opacity:1;stroke-miterlimit:10;" d="M 51.5 91.246094 L 44.410156 98.238281 "/>
<path style="fill:none;stroke-width:1.2;stroke-linecap:butt;stroke-linejoin:miter;stroke:rgb(100%,0%,0%);stroke-opacity:1;stroke-miterlimit:10;" d="M 44.410156 98.238281 L 46.917969 107.875 "/>
<path style="fill:none;stroke-width:1.2;stroke-linecap:butt;stroke-linejoin:miter;stroke:rgb(0%,0%,0%);stroke-opacity:1;stroke-miterlimit:10;" d="M 46.917969 107.875 L 49.429688 117.507812 "/>
<path style=" stroke:none;fill-rule:nonzero;fill:rgb(100%,100%,100%);fill-opacity:1;" d="M 40.410156 92.738281 L 48.410156 92.738281 L 48.410156 103.738281 L 40.410156 103.738281 Z M 40.410156 92.738281 "/>
<g style="fill:rgb(100%,0%,0%);fill-opacity:1;">
  <use xlink:href="#glyph0-1" x="40.410156" y="101.401367"/>
</g>
<path style="fill:none;stroke-width:1.2;stroke-linecap:butt;stroke-linejoin:miter;stroke:rgb(0%,0%,0%);stroke-opacity:1;stroke-miterlimit:10;" d="M 49.429688 117.507812 L 68.628906 122.796875 "/>
<path style="fill:none;stroke-width:1.2;stroke-linecap:butt;stroke-linejoin:miter;stroke:rgb(0%,0%,0%);stroke-opacity:1;stroke-miterlimit:10;" d="M 50.105469 122.554688 L 65.464844 126.785156 "/>
<path style="fill:none;stroke-width:1.2;stroke-linecap:butt;stroke-linejoin:miter;stroke:rgb(0%,0%,0%);stroke-opacity:1;stroke-miterlimit:10;" d="M 35.25 131.492188 L 49.429688 117.507812 "/>
<path style="fill:none;stroke-width:1.2;stroke-linecap:butt;stroke-linejoin:miter;stroke:rgb(0%,0%,0%);stroke-opacity:1;stroke-miterlimit:10;" d="M 68.628906 122.796875 L 73.648438 142.066406 "/>
<path style="fill:none;stroke-width:1.2;stroke-linecap:butt;stroke-linejoin:miter;stroke:rgb(0%,0%,0%);stroke-opacity:1;stroke-miterlimit:10;" d="M 73.648438 142.066406 L 59.46875 156.050781 "/>
<path style="fill:none;stroke-width:1.2;stroke-linecap:butt;stroke-linejoin:miter;stroke:rgb(0%,0%,0%);stroke-opacity:1;stroke-miterlimit:10;" d="M 68.9375 140.128906 L 57.59375 151.316406 "/>
<path style="fill:none;stroke-width:1.2;stroke-linecap:butt;stroke-linejoin:miter;stroke:rgb(0%,0%,0%);stroke-opacity:1;stroke-miterlimit:10;" d="M 59.46875 156.050781 L 40.269531 150.761719 "/>
<path style="fill:none;stroke-width:1.2;stroke-linecap:butt;stroke-linejoin:miter;stroke:rgb(0%,0%,0%);stroke-opacity:1;stroke-miterlimit:10;" d="M 59.46875 156.050781 L 64.488281 175.320312 "/>
<path style="fill:none;stroke-width:1.2;stroke-linecap:butt;stroke-linejoin:miter;stroke:rgb(0%,0%,0%);stroke-opacity:1;stroke-miterlimit:10;" d="M 40.269531 150.761719 L 35.25 131.492188 "/>
<path style="fill:none;stroke-width:1.2;stroke-linecap:butt;stroke-linejoin:miter;stroke:rgb(0%,0%,0%);stroke-opacity:1;stroke-miterlimit:10;" d="M 44.300781 147.652344 L 40.285156 132.238281 "/>
<path style="fill:none;stroke-width:1.2;stroke-linecap:butt;stroke-linejoin:miter;stroke:rgb(0%,0%,0%);stroke-opacity:1;stroke-miterlimit:10;" d="M 62.84375 173.652344 L 55.753906 180.644531 "/>
<path style="fill:none;stroke-width:1.2;stroke-linecap:butt;stroke-linejoin:miter;stroke:rgb(100%,0%,0%);stroke-opacity:1;stroke-miterlimit:10;" d="M 55.753906 180.644531 L 48.664062 187.632812 "/>
<path style="fill:none;stroke-width:1.2;stroke-linecap:butt;stroke-linejoin:miter;stroke:rgb(0%,0%,0%);stroke-opacity:1;stroke-miterlimit:10;" d="M 66.132812 176.988281 L 59.042969 183.980469 "/>
<path style="fill:none;stroke-width:1.2;stroke-linecap:butt;stroke-linejoin:miter;stroke:rgb(100%,0%,0%);stroke-opacity:1;stroke-miterlimit:10;" d="M 59.042969 183.980469 L 51.953125 190.96875 "/>
<path style="fill:none;stroke-width:1.2;stroke-linecap:butt;stroke-linejoin:miter;stroke:rgb(0%,0%,0%);stroke-opacity:1;stroke-miterlimit:10;" d="M 64.488281 175.320312 L 74.085938 177.964844 "/>
<path style="fill:none;stroke-width:1.2;stroke-linecap:butt;stroke-linejoin:miter;stroke:rgb(0%,0%,100%);stroke-opacity:1;stroke-miterlimit:10;" d="M 74.085938 177.964844 L 83.683594 180.609375 "/>
<path style=" stroke:none;fill-rule:nonzero;fill:rgb(100%,100%,100%);fill-opacity:1;" d="M 42.308594 183.800781 L 50.308594 183.800781 L 50.308594 194.800781 L 42.308594 194.800781 Z M 42.308594 183.800781 "/>
<g style="fill:rgb(100%,0%,0%);fill-opacity:1;">
  <use xlink:href="#glyph0-1" x="42.308594" y="192.463867"/>
</g>
<path style="fill:none;stroke-width:1.2;stroke-linecap:butt;stroke-linejoin:miter;stroke:rgb(0%,0%,100%);stroke-opacity:1;stroke-miterlimit:10;" d="M 83.683594 180.609375 L 86.195312 190.242188 "/>
<path style="fill:none;stroke-width:1.2;stroke-linecap:butt;stroke-linejoin:miter;stroke:rgb(0%,0%,0%);stroke-opacity:1;stroke-miterlimit:10;" d="M 86.195312 190.242188 L 88.703125 199.878906 "/>
<path style="fill:none;stroke-width:1.2;stroke-linecap:butt;stroke-linejoin:miter;stroke:rgb(0%,0%,0%);stroke-opacity:1;stroke-miterlimit:10;" d="M 97.863281 166.625 L 90.773438 173.617188 "/>
<path style="fill:none;stroke-width:1.2;stroke-linecap:butt;stroke-linejoin:miter;stroke:rgb(0%,0%,100%);stroke-opacity:1;stroke-miterlimit:10;" d="M 90.773438 173.617188 L 83.683594 180.609375 "/>
<path style=" stroke:none;fill-rule:nonzero;fill:rgb(100%,100%,100%);fill-opacity:1;" d="M 80.683594 175.109375 L 87.683594 175.109375 L 87.683594 186.109375 L 80.683594 186.109375 Z M 80.683594 175.109375 "/>
<g style="fill:rgb(0%,0%,100%);fill-opacity:1;">
  <use xlink:href="#glyph0-2" x="80.683594" y="183.772461"/>
</g>
<path style="fill:none;stroke-width:1.2;stroke-linecap:butt;stroke-linejoin:miter;stroke:rgb(0%,0%,0%);stroke-opacity:1;stroke-miterlimit:10;" d="M 88.703125 199.878906 L 107.902344 205.167969 "/>
<path style="fill:none;stroke-width:1.2;stroke-linecap:butt;stroke-linejoin:miter;stroke:rgb(0%,0%,0%);stroke-opacity:1;stroke-miterlimit:10;" d="M 107.902344 205.167969 L 122.082031 191.183594 "/>
<path style="fill:none;stroke-width:1.2;stroke-linecap:butt;stroke-linejoin:miter;stroke:rgb(0%,0%,0%);stroke-opacity:1;stroke-miterlimit:10;" d="M 122.082031 191.183594 L 127.101562 210.457031 "/>
<path style="fill:none;stroke-width:1.2;stroke-linecap:butt;stroke-linejoin:miter;stroke:rgb(0%,0%,0%);stroke-opacity:1;stroke-miterlimit:10;" d="M 122.082031 191.183594 L 117.0625 171.914062 "/>
<path style="fill:none;stroke-width:1.2;stroke-linecap:butt;stroke-linejoin:miter;stroke:rgb(0%,0%,0%);stroke-opacity:1;stroke-miterlimit:10;" d="M 136.261719 177.203125 L 122.082031 191.183594 "/>
<path style="fill:none;stroke-width:1.2;stroke-linecap:butt;stroke-linejoin:miter;stroke:rgb(0%,0%,0%);stroke-opacity:1;stroke-miterlimit:10;" d="M 127.101562 210.457031 L 146.300781 215.742188 "/>
<path style="fill:none;stroke-width:1.2;stroke-linecap:butt;stroke-linejoin:miter;stroke:rgb(0%,0%,0%);stroke-opacity:1;stroke-miterlimit:10;" d="M 146.300781 215.742188 L 160.476562 201.761719 "/>
<path style="fill:none;stroke-width:1.2;stroke-linecap:butt;stroke-linejoin:miter;stroke:rgb(0%,0%,0%);stroke-opacity:1;stroke-miterlimit:10;" d="M 160.476562 201.761719 L 157.96875 192.125 "/>
<path style="fill:none;stroke-width:1.2;stroke-linecap:butt;stroke-linejoin:miter;stroke:rgb(0%,0%,100%);stroke-opacity:1;stroke-miterlimit:10;" d="M 157.96875 192.125 L 155.457031 182.492188 "/>
<path style="fill:none;stroke-width:1.2;stroke-linecap:butt;stroke-linejoin:miter;stroke:rgb(0%,0%,100%);stroke-opacity:1;stroke-miterlimit:10;" d="M 155.457031 182.492188 L 145.859375 179.847656 "/>
<path style="fill:none;stroke-width:1.2;stroke-linecap:butt;stroke-linejoin:miter;stroke:rgb(0%,0%,0%);stroke-opacity:1;stroke-miterlimit:10;" d="M 145.859375 179.847656 L 136.261719 177.203125 "/>
<path style="fill:none;stroke-width:1.2;stroke-linecap:butt;stroke-linejoin:miter;stroke:rgb(0%,0%,100%);stroke-opacity:1;stroke-miterlimit:10;" d="M 155.457031 182.492188 L 162.546875 175.5 "/>
<path style="fill:none;stroke-width:1.2;stroke-linecap:butt;stroke-linejoin:miter;stroke:rgb(0%,0%,0%);stroke-opacity:1;stroke-miterlimit:10;" d="M 162.546875 175.5 L 169.636719 168.507812 "/>
<path style=" stroke:none;fill-rule:nonzero;fill:rgb(100%,100%,100%);fill-opacity:1;" d="M 152.457031 176.992188 L 159.457031 176.992188 L 159.457031 187.992188 L 152.457031 187.992188 Z M 152.457031 176.992188 "/>
<g style="fill:rgb(0%,0%,100%);fill-opacity:1;">
  <use xlink:href="#glyph0-2" x="152.457031" y="185.655273"/>
</g>
<path style="fill:none;stroke-width:1.2;stroke-linecap:butt;stroke-linejoin:miter;stroke:rgb(0%,0%,0%);stroke-opacity:1;stroke-miterlimit:10;" d="M 171.90625 167.917969 L 169.394531 158.285156 "/>
<path style="fill:none;stroke-width:1.2;stroke-linecap:butt;stroke-linejoin:miter;stroke:rgb(100%,0%,0%);stroke-opacity:1;stroke-miterlimit:10;" d="M 169.394531 158.285156 L 166.886719 148.648438 "/>
<path style="fill:none;stroke-width:1.2;stroke-linecap:butt;stroke-linejoin:miter;stroke:rgb(0%,0%,0%);stroke-opacity:1;stroke-miterlimit:10;" d="M 167.371094 169.097656 L 164.859375 159.464844 "/>
<path style="fill:none;stroke-width:1.2;stroke-linecap:butt;stroke-linejoin:miter;stroke:rgb(100%,0%,0%);stroke-opacity:1;stroke-miterlimit:10;" d="M 164.859375 159.464844 L 162.351562 149.828125 "/>
<path style="fill:none;stroke-width:1.2;stroke-linecap:butt;stroke-linejoin:miter;stroke:rgb(0%,0%,0%);stroke-opacity:1;stroke-miterlimit:10;" d="M 169.636719 168.507812 L 179.238281 171.152344 "/>
<path style="fill:none;stroke-width:1.2;stroke-linecap:butt;stroke-linejoin:miter;stroke:rgb(0%,0%,100%);stroke-opacity:1;stroke-miterlimit:10;" d="M 179.238281 171.152344 L 188.835938 173.796875 "/>
<path style=" stroke:none;fill-rule:nonzero;fill:rgb(100%,100%,100%);fill-opacity:1;" d="M 160.617188 143.738281 L 168.617188 143.738281 L 168.617188 154.738281 L 160.617188 154.738281 Z M 160.617188 143.738281 "/>
<g style="fill:rgb(100%,0%,0%);fill-opacity:1;">
  <use xlink:href="#glyph0-1" x="160.617188" y="152.401367"/>
</g>
<path style="fill:none;stroke-width:1.2;stroke-linecap:butt;stroke-linejoin:miter;stroke:rgb(0%,0%,100%);stroke-opacity:1;stroke-miterlimit:10;" d="M 188.835938 173.796875 L 195.925781 166.804688 "/>
<path style="fill:none;stroke-width:1.2;stroke-linecap:butt;stroke-linejoin:miter;stroke:rgb(0%,0%,0%);stroke-opacity:1;stroke-miterlimit:10;" d="M 195.925781 166.804688 L 203.015625 159.816406 "/>
<path style=" stroke:none;fill-rule:nonzero;fill:rgb(100%,100%,100%);fill-opacity:1;" d="M 181.835938 168.296875 L 195.835938 168.296875 L 195.835938 179.296875 L 181.835938 179.296875 Z M 181.835938 168.296875 "/>
<g style="fill:rgb(0%,0%,100%);fill-opacity:1;">
  <use xlink:href="#glyph0-2" x="181.835938" y="176.959961"/>
  <use xlink:href="#glyph0-3" x="188.813477" y="176.959961"/>
</g>
<path style="fill:none;stroke-width:1.2;stroke-linecap:butt;stroke-linejoin:miter;stroke:rgb(0%,0%,0%);stroke-opacity:1;stroke-miterlimit:10;" d="M 203.015625 159.816406 L 222.214844 165.105469 "/>
<path style="fill:none;stroke-width:1.2;stroke-linecap:butt;stroke-linejoin:miter;stroke:rgb(0%,0%,0%);stroke-opacity:1;stroke-miterlimit:10;" d="M 206.179688 155.828125 L 221.539062 160.058594 "/>
<path style="fill:none;stroke-width:1.2;stroke-linecap:butt;stroke-linejoin:miter;stroke:rgb(0%,0%,0%);stroke-opacity:1;stroke-miterlimit:10;" d="M 197.996094 140.546875 L 203.015625 159.816406 "/>
<path style="fill:none;stroke-width:1.2;stroke-linecap:butt;stroke-linejoin:miter;stroke:rgb(0%,0%,0%);stroke-opacity:1;stroke-miterlimit:10;" d="M 222.214844 165.105469 L 236.390625 151.121094 "/>
<path style="fill:none;stroke-width:1.2;stroke-linecap:butt;stroke-linejoin:miter;stroke:rgb(0%,0%,0%);stroke-opacity:1;stroke-miterlimit:10;" d="M 236.390625 151.121094 L 231.371094 131.851562 "/>
<path style="fill:none;stroke-width:1.2;stroke-linecap:butt;stroke-linejoin:miter;stroke:rgb(0%,0%,0%);stroke-opacity:1;stroke-miterlimit:10;" d="M 231.355469 150.375 L 227.339844 134.960938 "/>
<path style="fill:none;stroke-width:1.2;stroke-linecap:butt;stroke-linejoin:miter;stroke:rgb(0%,0%,0%);stroke-opacity:1;stroke-miterlimit:10;" d="M 231.371094 131.851562 L 212.175781 126.5625 "/>
<path style="fill:none;stroke-width:1.2;stroke-linecap:butt;stroke-linejoin:miter;stroke:rgb(0%,0%,0%);stroke-opacity:1;stroke-miterlimit:10;" d="M 231.371094 131.851562 L 238.460938 124.859375 "/>
<path style="fill:none;stroke-width:1.2;stroke-linecap:butt;stroke-linejoin:miter;stroke:rgb(100%,0%,0%);stroke-opacity:1;stroke-miterlimit:10;" d="M 238.460938 124.859375 L 245.550781 117.871094 "/>
<path style="fill:none;stroke-width:1.2;stroke-linecap:butt;stroke-linejoin:miter;stroke:rgb(0%,0%,0%);stroke-opacity:1;stroke-miterlimit:10;" d="M 212.175781 126.5625 L 197.996094 140.546875 "/>
<path style="fill:none;stroke-width:1.2;stroke-linecap:butt;stroke-linejoin:miter;stroke:rgb(0%,0%,0%);stroke-opacity:1;stroke-miterlimit:10;" d="M 214.046875 131.296875 L 202.703125 142.484375 "/>
<path style="fill:none;stroke-width:1.2;stroke-linecap:butt;stroke-linejoin:miter;stroke:rgb(100%,0%,0%);stroke-opacity:1;stroke-miterlimit:10;" d="M 245.550781 117.871094 L 255.152344 120.511719 "/>
<path style="fill:none;stroke-width:1.2;stroke-linecap:butt;stroke-linejoin:miter;stroke:rgb(0%,0%,0%);stroke-opacity:1;stroke-miterlimit:10;" d="M 255.152344 120.511719 L 264.75 123.15625 "/>
<path style=" stroke:none;fill-rule:nonzero;fill:rgb(100%,100%,100%);fill-opacity:1;" d="M 241.550781 112.371094 L 249.550781 112.371094 L 249.550781 123.371094 L 241.550781 123.371094 Z M 241.550781 112.371094 "/>
<g style="fill:rgb(100%,0%,0%);fill-opacity:1;">
  <use xlink:href="#glyph0-1" x="241.550781" y="121.03418"/>
</g>
<path style="fill:none;stroke-width:1.2;stroke-linecap:butt;stroke-linejoin:miter;stroke:rgb(0%,0%,0%);stroke-opacity:1;stroke-miterlimit:10;" d="M 117.0625 171.914062 L 97.863281 166.625 "/>
</g>
</svg>

<svg xmlns="http://www.w3.org/2000/svg" xmlns:xlink="http://www.w3.org/1999/xlink" width="300pt" height="300pt" viewBox="0 0 300 300"><defs><symbol overflow="visible"><path d="M.453 1.594v-7.938h4.5v7.938zm.5-.5h3.5v-6.938h-3.5zm0 0"/></symbol><symbol overflow="visible" id="a"><path d="M3.547-5.953c-.65 0-1.164.242-1.547.72-.375.48-.563 1.13-.563 1.952 0 .835.188 1.49.563 1.967.383.48.898.72 1.547.72.644 0 1.156-.24 1.53-.72.376-.476.564-1.132.564-1.968 0-.822-.187-1.474-.562-1.954-.375-.477-.887-.72-1.53-.72zm0-.734c.914 0 1.648.312 2.203.937.55.617.828 1.438.828 2.47 0 1.042-.277 1.87-.828 2.483-.555.617-1.29.922-2.203.922-.93 0-1.668-.305-2.22-.922C.774-1.41.5-2.237.5-3.28c0-1.033.273-1.853.828-2.47.55-.625 1.29-.938 2.22-.938zm0 0"/></symbol><symbol overflow="visible" id="b"><path d="M.89-6.563H2.08l2.906 5.485v-5.484h.86V0H4.656L1.75-5.484V0H.89zm0 0"/></symbol><symbol overflow="visible" id="c"><path d="M.89-6.563h.876v2.688H5v-2.688h.89V0H5v-3.125H1.766V0H.89zm0 0"/></symbol></defs><g><path fill="#fff" d="M0 0h300v300H0z"/><path d="M58.59 84.258l-7.09 6.988" stroke-width="1.2" stroke="#000" stroke-miterlimit="10" fill="none"/><path d="M51.5 91.246l-7.09 6.992M44.41 98.238l2.508 9.637" stroke-width="1.2" stroke="#f00" stroke-miterlimit="10" fill="none"/><path d="M46.918 107.875l2.512 9.633" stroke-width="1.2" stroke="#000" stroke-miterlimit="10" fill="none"/><path d="M40.41 92.738h8v11h-8zm0 0" fill="#fff"/><use xlink:href="#a" x="40.41" y="101.401" fill="#f00"/><path d="M49.43 117.508l19.2 5.29M50.105 122.555l15.36 4.23M35.25 131.492l14.18-13.984M68.63 122.797l5.018 19.27M73.648 142.066l-14.18 13.985M68.938 140.13l-11.344 11.186M59.47 156.05l-19.2-5.288M59.47 156.05l5.018 19.27M40.27 150.762l-5.02-19.27M44.3 147.652l-4.015-15.414M62.844 173.652l-7.09 6.993" stroke-width="1.2" stroke="#000" stroke-miterlimit="10" fill="none"/><path d="M55.754 180.645l-7.09 6.988" stroke-width="1.2" stroke="#f00" stroke-miterlimit="10" fill="none"/><path d="M66.133 176.988l-7.09 6.992" stroke-width="1.2" stroke="#000" stroke-miterlimit="10" fill="none"/><path d="M59.043 183.98l-7.09 6.99" stroke-width="1.2" stroke="#f00" stroke-miterlimit="10" fill="none"/><path d="M64.488 175.32l9.598 2.645" stroke-width="1.2" stroke="#000" stroke-miterlimit="10" fill="none"/><path d="M74.086 177.965l9.598 2.644" stroke-width="1.2" stroke="#00f" stroke-miterlimit="10" fill="none"/><path d="M42.31 183.8h8v11h-8zm0 0" fill="#fff"/><use xlink:href="#a" x="42.309" y="192.464" fill="#f00"/><path d="M83.684 180.61l2.51 9.632" stroke-width="1.2" stroke="#00f" stroke-miterlimit="10" fill="none"/><path d="M86.195 190.242l2.508 9.637M97.863 166.625l-7.09 6.992" stroke-width="1.2" stroke="#000" stroke-miterlimit="10" fill="none"/><path d="M90.773 173.617l-7.09 6.992" stroke-width="1.2" stroke="#00f" stroke-miterlimit="10" fill="none"/><path d="M80.684 175.11h7v11h-7zm0 0" fill="#fff"/><use xlink:href="#b" x="80.684" y="183.772" fill="#00f"/><path d="M88.703 199.88l19.2 5.288M107.902 205.168l14.18-13.984M122.082 191.184l5.02 19.273M122.082 191.184l-5.02-19.27M136.262 177.203l-14.18 13.98M127.102 210.457l19.2 5.285M146.3 215.742l14.177-13.98M160.477 201.762l-2.508-9.637" stroke-width="1.2" stroke="#000" stroke-miterlimit="10" fill="none"/><path d="M157.97 192.125l-2.513-9.633M155.457 182.492l-9.598-2.644" stroke-width="1.2" stroke="#00f" stroke-miterlimit="10" fill="none"/><path d="M145.86 179.848l-9.598-2.645" stroke-width="1.2" stroke="#000" stroke-miterlimit="10" fill="none"/><path d="M155.457 182.492l7.09-6.992" stroke-width="1.2" stroke="#00f" stroke-miterlimit="10" fill="none"/><path d="M162.547 175.5l7.09-6.992" stroke-width="1.2" stroke="#000" stroke-miterlimit="10" fill="none"/><path d="M152.457 176.992h7v11h-7zm0 0" fill="#fff"/><use xlink:href="#b" x="152.457" y="185.655" fill="#00f"/><path d="M171.906 167.918l-2.51-9.633" stroke-width="1.2" stroke="#000" stroke-miterlimit="10" fill="none"/><path d="M169.395 158.285l-2.508-9.637" stroke-width="1.2" stroke="#f00" stroke-miterlimit="10" fill="none"/><path d="M167.37 169.098l-2.51-9.633" stroke-width="1.2" stroke="#000" stroke-miterlimit="10" fill="none"/><path d="M164.86 159.465l-2.508-9.637" stroke-width="1.2" stroke="#f00" stroke-miterlimit="10" fill="none"/><path d="M169.637 168.508l9.6 2.644" stroke-width="1.2" stroke="#000" stroke-miterlimit="10" fill="none"/><path d="M179.238 171.152l9.598 2.645" stroke-width="1.2" stroke="#00f" stroke-miterlimit="10" fill="none"/><path d="M160.617 143.738h8v11h-8zm0 0" fill="#fff"/><use xlink:href="#a" x="160.617" y="152.401" fill="#f00"/><path d="M188.836 173.797l7.09-6.992" stroke-width="1.2" stroke="#00f" stroke-miterlimit="10" fill="none"/><path d="M195.926 166.805l7.09-6.99" stroke-width="1.2" stroke="#000" stroke-miterlimit="10" fill="none"/><path d="M181.836 168.297h14v11h-14zm0 0" fill="#fff"/><g fill="#00f"><use xlink:href="#b" x="181.836" y="176.96"/><use xlink:href="#c" x="188.813" y="176.96"/></g><path d="M203.016 159.816l19.2 5.29M206.18 155.828l15.36 4.23M197.996 140.547l5.02 19.27M222.215 165.105l14.176-13.984M236.39 151.12l-5.02-19.268M231.355 150.375l-4.015-15.414M231.37 131.852l-19.194-5.29M231.37 131.852l7.09-6.993" stroke-width="1.2" stroke="#000" stroke-miterlimit="10" fill="none"/><path d="M238.46 124.86l7.09-6.99" stroke-width="1.2" stroke="#f00" stroke-miterlimit="10" fill="none"/><path d="M212.176 126.563l-14.18 13.984M214.047 131.297l-11.344 11.187" stroke-width="1.2" stroke="#000" stroke-miterlimit="10" fill="none"/><path d="M245.55 117.87l9.602 2.642" stroke-width="1.2" stroke="#f00" stroke-miterlimit="10" fill="none"/><path d="M255.152 120.512l9.598 2.644" stroke-width="1.2" stroke="#000" stroke-miterlimit="10" fill="none"/><path d="M241.55 112.37h8v11h-8zm0 0" fill="#fff"/><use xlink:href="#a" x="241.551" y="121.034" fill="#f00"/><path d="M117.063 171.914l-19.2-5.29" stroke-width="1.2" stroke="#000" stroke-miterlimit="10" fill="none"/></g></svg>
